X: 101
T:Reel du Printemps
R:Reel
C:Trad.
S:Pierre Schryer
Z:Alf -> Alf 
M:C|
L:1/8
K:A
e=g^g|:aAAA cAec|Bcde fefg|aAAA cAeA|fAgA a2(3efg|
aAce aece|Bcde fefg|[1 aaga faec|dfec Ac(3efg:|[2 afge faec|dfec A2ed
|:cAEA cAec|Bcde f2ed|cAEA Acec|dfec dBBd|
cAEA Acec|Bcde fefg|[1 aaga faec|dfec A2ed:|[2 afge faec|dfec A2zA|
|:EAcA EAcA|GABc dBBA|GBEB GBEB|GBEB A3A|
EAcA EAcA|GABc defg|[1 aaga faec|dfec AzAz:|[2 abga faec|dBGBA2z2|]
